X: 38193
T: Sprig Of Shillelah, The
R: jig
M: 6/8
K: Gmajor
D|DGG GFG|AAA AGA|Bdc BAG|AcB A2 G/F/|GBG EGE|DEG G2:|
|:c|Bcd ded|ece d2c|Bcd ded|efg dcB|cac BgB|
ABA AGA|Bcd dcB|AcB A2 G/F/|GBG EGE|DEG G2:|

